src/assets/images/home_selected.svg

<svg viewBox="0 0 512 512" xmlns="http://www.w3.org/2000/svg"><path d="M448 463.746h-149.333v-149.333h-85.334v149.333h-149.333v-315.428l192-111.746 192 110.984v316.19z" fill="currentColor"/></svg>

<?xml version="1.0" standalone="no"?><!-- Generator: Gravit.io --><svg xmlns="http://www.w3.org/2000/svg" xmlns:xlink="http://www.w3.org/1999/xlink" style="isolation:isolate" viewBox="0 0 512 512" width="512" height="512"><defs><clipPath id="_clipPath_mnmocjpR8MFc9sk4YgkYrUEMR87qVl5Z"><rect width="512" height="512"/></clipPath></defs><g clip-path="url(#_clipPath_mnmocjpR8MFc9sk4YgkYrUEMR87qVl5Z)"><path d=" M 448 463.746 L 298.667 463.746 L 298.667 314.413 L 213.333 314.413 L 213.333 463.746 L 64 463.746 L 64 148.318 L 256 36.572 L 448 147.556 L 448 463.746 L 448 463.746 Z " fill="rgb(255,255,255)"/></g></svg>
